remix/Document/file-text-fill.svg

<svg viewBox="0 0 24 24" fill="currentColor" xmlns="http://www.w3.org/2000/svg"><path d="M21 9V20.9925C21 21.5511 20.5552 22 20.0066 22H3.9934C3.44495 22 3 21.556 3 21.0082V2.9918C3 2.45531 3.44694 2 3.99826 2H14V8C14 8.55228 14.4477 9 15 9H21ZM21 7H16V2.00318L21 7ZM8 7V9H11V7H8ZM8 11V13H16V11H8ZM8 15V17H16V15H8Z"/></svg>

<svg viewBox="0 0 24 24" xmlns="http://www.w3.org/2000/svg"><path fill="none" d="M0 0h24v24H0Z"/><path d="M21 9v11.99h0c0 .55-.45 1-1 1 -.01 0-.01 0-.01 0H3.97v-.001c-.55 0-1-.45-1-1V2.97c0-.54.44-1 .99-1h10.002v6 0c0 .55.44 1 1 1h6Zm0-2h-5V2.003L21 7ZM8 7v2h3V7H8Zm0 4v2h8v-2H8Zm0 4v2h8v-2H8Z"/></svg>
